X: 1
T: Tom Billy's
R: jig
M: 6/8
L: 1/8
K: Amix
~a3 ece|edB BAB|Aaa Ace|dcB Ace|
~a3 ece|edB BAF|GBd ged|1 edB Ace:|2 edB A2f||
|:~g3 ~a3|bag fed|faf g2d|BAB def|
~g3 ~a3|bge gab|age dBe|1 ABA A2f:|2 A BA A2B||
|:~c3 edd|edB dBA|~A3 dBA|~A3 aed|
~c3 dcd|ede gab|age dBe|1 ABA A2B:|2 A BA Ace||


Tune 816	Setting 26062

